app/img/contact/ic_phone_2.svg

<svg width="22" height="22" viewBox="0 0 22 22" fill="none" xmlns="http://www.w3.org/2000/svg">
    <path d="M19.9596 14.5989L16.1494 12.6384C15.3211 12.2132 14.2799 12.4258 13.6882 13.1817L12.6706 14.4808C11.6767 13.9139 10.7774 13.2762 9.78343 12.2605C8.74215 11.2212 8.12685 10.3472 7.53522 9.30794L8.83681 8.29226C9.57044 7.70176 9.80709 6.68607 9.38112 5.83574L7.41689 2.05648C7.15657 1.56046 6.70693 1.20615 6.16262 1.06443C5.61832 0.922703 5.05035 1.01719 4.57704 1.32426L2.16316 2.93044C1.3822 3.45009 0.956234 4.32403 1.00356 5.26885C1.07456 6.2609 1.16922 7.01676 1.31121 7.56002C2.04484 10.3945 3.79609 13.2998 6.25729 15.7563C8.7185 18.2128 11.6293 19.9607 14.4692 20.693C15.0135 20.8347 15.7944 20.9291 16.7647 21C16.8121 21 16.8831 21 16.9304 21C17.806 21 18.6343 20.5512 19.1076 19.819L20.6932 17.3861C21.0009 16.9137 21.0718 16.3468 20.9299 15.8272C20.7879 15.3075 20.4565 14.8587 19.9596 14.5989ZM19.5099 16.6302L17.9243 19.0631C17.6877 19.4174 17.2854 19.63 16.8594 19.6064C15.9838 19.5592 15.2738 19.4647 14.8242 19.3466C12.2446 18.6852 9.54678 17.0554 7.2749 14.7642C4.97936 12.4731 3.3701 9.80397 2.6838 7.22935C2.56548 6.78056 2.47082 6.07194 2.42349 5.19799C2.39982 4.77282 2.58915 4.37128 2.94413 4.13507L5.35799 2.52889C5.47632 2.45803 5.57099 2.4344 5.66566 2.4344C5.71299 2.4344 5.76031 2.43441 5.80764 2.45803C5.90231 2.48165 6.06796 2.55252 6.16262 2.74148L8.12685 6.52074C8.24518 6.75694 8.17419 7.04038 7.98487 7.20572L5.73665 8.95363L6.02064 9.47328C6.75427 10.8433 7.46423 11.9534 8.81316 13.2762C10.1148 14.5753 11.2507 15.3075 12.5759 16.0161L13.0966 16.2996L14.8715 14.032C15.0372 13.8194 15.3211 13.7722 15.5578 13.8903L19.3679 15.8508C19.5099 15.9216 19.6046 16.0397 19.6519 16.2051C19.6283 16.3468 19.6046 16.5121 19.5099 16.6302Z"
          fill="#5E2CE6" fill-opacity="0.8"/>
    <path d="M20.0059 14.5103L20.0053 14.51L16.1952 12.5495L16.1951 12.5494C15.3247 12.1027 14.2311 12.3259 13.6095 13.12L12.6453 14.351C11.6877 13.7986 10.8164 13.173 9.85491 12.1905L9.85408 12.1897C8.84516 11.1827 8.23988 10.3333 7.66504 9.33348L8.89833 8.3711L8.89834 8.37111L8.89952 8.37016C9.66889 7.75089 9.91811 6.68442 9.47053 5.79095L9.47054 5.79095L9.46985 5.78962L7.50562 2.01037L7.50544 2.01001C7.23187 1.48874 6.75905 1.11638 6.18782 0.967652C5.61597 0.818757 5.01915 0.918233 4.52261 1.24037L4.52261 1.24036L4.52164 1.241L2.10777 2.84719C1.29641 3.38706 0.85466 4.29512 0.90369 5.27385L0.903667 5.27385L0.90382 5.27598C0.974883 6.26897 1.06999 7.03244 1.2144 7.58508C1.95327 10.4398 3.71514 13.3603 6.18665 15.8271C8.6581 18.2938 11.584 20.0523 14.444 20.7897C14.9977 20.9339 15.7865 21.0288 16.7574 21.0997L16.7574 21.1H16.7647H16.765H16.7653H16.7656H16.7658H16.7661H16.7664H16.7667H16.767H16.7672H16.7675H16.7678H16.7681H16.7684H16.7687H16.769H16.7692H16.7695H16.7698H16.7701H16.7704H16.7707H16.771H16.7712H16.7715H16.7718H16.7721H16.7724H16.7727H16.773H16.7733H16.7736H16.7739H16.7742H16.7745H16.7748H16.7751H16.7753H16.7756H16.7759H16.7762H16.7765H16.7768H16.7771H16.7774H16.7777H16.778H16.7783H16.7786H16.7789H16.7792H16.7795H16.7798H16.7801H16.7804H16.7807H16.781H16.7814H16.7817H16.782H16.7823H16.7826H16.7829H16.7832H16.7835H16.7838H16.7841H16.7844H16.7847H16.785H16.7854H16.7857H16.786H16.7863H16.7866H16.7869H16.7872H16.7875H16.7878H16.7882H16.7885H16.7888H16.7891H16.7894H16.7897H16.79H16.7904H16.7907H16.791H16.7913H16.7916H16.7919H16.7923H16.7926H16.7929H16.7932H16.7935H16.7939H16.7942H16.7945H16.7948H16.7951H16.7955H16.7958H16.7961H16.7964H16.7968H16.7971H16.7974H16.7977H16.798H16.7984H16.7987H16.799H16.7993H16.7997H16.8H16.8003H16.8006H16.801H16.8013H16.8016H16.802H16.8023H16.8026H16.8029H16.8033H16.8036H16.8039H16.8043H16.8046H16.8049H16.8052H16.8056H16.8059H16.8062H16.8066H16.8069H16.8072H16.8076H16.8079H16.8082H16.8086H16.8089H16.8092H16.8096H16.8099H16.8102H16.8106H16.8109H16.8112H16.8116H16.8119H16.8122H16.8126H16.8129H16.8132H16.8136H16.8139H16.8143H16.8146H16.8149H16.8153H16.8156H16.8159H16.8163H16.8166H16.817H16.8173H16.8176H16.818H16.8183H16.8187H16.819H16.8193H16.8197H16.82H16.8203H16.8207H16.821H16.8214H16.8217H16.8221H16.8224H16.8227H16.8231H16.8234H16.8238H16.8241H16.8244H16.8248H16.8251H16.8255H16.8258H16.8262H16.8265H16.8268H16.8272H16.8275H16.8279H16.8282H16.8286H16.8289H16.8292H16.8296H16.8299H16.8303H16.8306H16.831H16.8313H16.8316H16.832H16.8323H16.8327H16.833H16.8334H16.8337H16.8341H16.8344H16.8348H16.8351H16.8354H16.8358H16.8361H16.8365H16.8368H16.8372H16.8375H16.8379H16.8382H16.8386H16.8389H16.8392H16.8396H16.8399H16.8403H16.8406H16.841H16.8413H16.8417H16.842H16.8424H16.8427H16.8431H16.8434H16.8437H16.8441H16.8444H16.8448H16.8451H16.8455H16.8458H16.8462H16.8465H16.8469H16.8472H16.8476H16.8479H16.8483H16.8486H16.8489H16.8493H16.8496H16.85H16.8503H16.8507H16.851H16.8514H16.8517H16.8521H16.8524H16.8528H16.8531H16.8535H16.8538H16.8541H16.8545H16.8548H16.8552H16.8555H16.8559H16.8562H16.8566H16.8569H16.8573H16.8576H16.858H16.8583H16.8586H16.859H16.8593H16.8597H16.86H16.8604H16.8607H16.8611H16.8614H16.8618H16.8621H16.8624H16.8628H16.8631H16.8635H16.8638H16.8642H16.8645H16.8649H16.8652H16.8655H16.8659H16.8662H16.8666H16.8669H16.8673H16.8676H16.8679H16.8683H16.8686H16.869H16.8693H16.8697H16.87H16.8703H16.8707H16.871H16.8714H16.8717H16.872H16.8724H16.8727H16.8731H16.8734H16.8738H16.8741H16.8744H16.8748H16.8751H16.8755H16.8758H16.8761H16.8765H16.8768H16.8772H16.8775H16.8778H16.8782H16.8785H16.8788H16.8792H16.8795H16.8799H16.8802H16.8805H16.8809H16.8812H16.8815H16.8819H16.8822H16.8825H16.8829H16.8832H16.8836H16.8839H16.8842H16.8846H16.8849H16.8852H16.8856H16.8859H16.8862H16.8866H16.8869H16.8872H16.8876H16.8879H16.8882H16.8886H16.8889H16.8892H16.8895H16.8899H16.8902H16.8905H16.8909H16.8912H16.8915H16.8919H16.8922H16.8925H16.8928H16.8932H16.8935H16.8938H16.8941H16.8945H16.8948H16.8951H16.8955H16.8958H16.8961H16.8964H16.8968H16.8971H16.8974H16.8977H16.898H16.8984H16.8987H16.899H16.8993H16.8997H16.9H16.9003H16.9006H16.9009H16.9013H16.9016H16.9019H16.9022H16.9025H16.9029H16.9032H16.9035H16.9038H16.9041H16.9044H16.9048H16.9051H16.9054H16.9057H16.906H16.9063H16.9067H16.907H16.9073H16.9076H16.9079H16.9082H16.9085H16.9088H16.9092H16.9095H16.9098H16.9101H16.9104H16.9107H16.911H16.9113H16.9116H16.9119H16.9122H16.9125H16.9129H16.9132H16.9135H16.9138H16.9141H16.9144H16.9147H16.915H16.9153H16.9156H16.9159H16.9162H16.9165H16.9168H16.9171H16.9174H16.9177H16.918H16.9183H16.9186H16.9189H16.9192H16.9195H16.9198H16.9201H16.9204H16.9207H16.921H16.9213H16.9215H16.9218H16.9221H16.9224H16.9227H16.923H16.9233H16.9236H16.9239H16.9242H16.9245H16.9247H16.925H16.9253H16.9256H16.9259H16.9262H16.9265H16.9267H16.927H16.9273H16.9276H16.9279H16.9282H16.9284H16.9287H16.929H16.9293H16.9296H16.9298H16.9301H16.9304C17.8396 21.1 18.6996 20.6343 19.1915 19.8735C19.1915 19.8734 19.1916 19.8733 19.1916 19.8733L20.777 17.4407L20.777 17.4407C21.1011 16.9429 21.1754 16.3463 21.0263 15.8008C20.8777 15.2569 20.5298 14.7842 20.0059 14.5103ZM19.4319 16.5677L19.4315 16.5674L19.4262 16.5756L17.8412 19.0076C17.8411 19.0078 17.841 19.0079 17.8409 19.0081C17.6228 19.3343 17.2535 19.5281 16.8649 19.5066L16.8648 19.5066C15.9918 19.4595 15.2896 19.3654 14.8496 19.2499L14.849 19.2497C12.2901 18.5936 9.60758 16.9747 7.34591 14.6938L7.34555 14.6935C5.06021 12.4125 3.46147 9.75837 2.78046 7.20371C2.66469 6.76454 2.57052 6.06377 2.52334 5.19258L2.52334 5.19243C2.50153 4.8007 2.67565 4.43383 2.99953 4.21833L5.41136 2.61349C5.51508 2.55175 5.59168 2.5344 5.66566 2.5344C5.71549 2.5344 5.73966 2.53587 5.76299 2.54751L5.7728 2.5524L5.78343 2.55506C5.8618 2.57461 5.99631 2.63274 6.07322 2.78627L6.07321 2.78627L6.07389 2.7876L8.03776 6.56615C8.13317 6.75736 8.07727 6.99066 7.92113 7.12861L5.67527 8.87468L5.60809 8.92692L5.6489 9.00159L5.93248 9.52049C5.93255 9.52062 5.93262 9.52075 5.93269 9.52088C6.66932 10.8964 7.38485 12.0156 8.74283 13.3472C10.053 14.6549 11.1975 15.3924 12.5285 16.1041C12.5286 16.1042 12.5287 16.1042 12.5288 16.1043L13.0488 16.3874L13.1231 16.4279L13.1753 16.3612L14.9502 14.0936L14.9504 14.0935C15.0835 13.9227 15.3138 13.8806 15.5126 13.9795C15.5128 13.9796 15.513 13.9797 15.5131 13.9798L19.3222 15.9397L19.3233 15.9403C19.4322 15.9946 19.5076 16.0823 19.5494 16.2117C19.5258 16.3528 19.5029 16.4791 19.4319 16.5677Z"
          stroke="#5E2CE6" stroke-opacity="0.8" stroke-width="0.2"/>
</svg>

<svg width="22" height="22" fill="none" xmlns="http://www.w3.org/2000/svg"><path d="m19.96 14.599-3.81-1.96a1.984 1.984 0 0 0-2.462.543l-1.017 1.299a12.458 12.458 0 0 1-2.888-2.22 12.862 12.862 0 0 1-2.248-2.953l1.302-1.016c.733-.59.97-1.606.544-2.456l-1.964-3.78c-.26-.496-.71-.85-1.254-.992a1.98 1.98 0 0 0-1.586.26L2.163 2.93a2.618 2.618 0 0 0-1.16 2.339c.072.992.166 1.748.308 2.291.734 2.835 2.485 5.74 4.946 8.196 2.462 2.457 5.372 4.205 8.212 4.937.545.142 1.325.236 2.296.307h.165c.876 0 1.704-.449 2.178-1.181l1.585-2.433a1.92 1.92 0 0 0 .237-1.559 1.94 1.94 0 0 0-.97-1.228Zm-.45 2.031-1.586 2.433a1.206 1.206 0 0 1-1.065.543c-.875-.047-1.585-.141-2.035-.26-2.58-.66-5.277-2.29-7.55-4.582-2.295-2.29-3.904-4.96-4.59-7.535-.119-.448-.213-1.157-.26-2.031a1.183 1.183 0 0 1 .52-1.063L5.358 2.53a.574.574 0 0 1 .308-.095.3.3 0 0 1 .142.024c.094.024.26.095.355.283l1.964 3.78a.576.576 0 0 1-.142.685L5.737 8.954l.284.52c.733 1.37 1.443 2.48 2.792 3.802 1.302 1.3 2.438 2.031 3.763 2.74l.52.284 1.775-2.268a.547.547 0 0 1 .687-.142l3.81 1.96c.142.072.237.19.284.355-.024.142-.047.307-.142.425Z" fill="#5E2CE6" fill-opacity=".8"/><path d="m20.006 14.51-3.81-1.96a2.084 2.084 0 0 0-2.587.57l-.964 1.231a12.317 12.317 0 0 1-2.79-2.16v-.001a12.714 12.714 0 0 1-2.19-2.857l1.233-.962H8.9a2.099 2.099 0 0 0 .57-2.58V5.79L7.506 2.01A2.063 2.063 0 0 0 6.187.968a2.08 2.08 0 0 0-1.665.272l-.001.001-2.414 1.606C1.296 3.387.855 4.295.904 5.274v.002c.07.993.166 1.756.31 2.31.74 2.854 2.501 5.774 4.973 8.241 2.471 2.467 5.397 4.225 8.257 4.963.554.144 1.342.239 2.313.31h.173c.91 0 1.77-.466 2.262-1.227l1.585-2.432a2.02 2.02 0 0 0 .25-1.64 2.04 2.04 0 0 0-1.021-1.29Zm-.574 2.058-.006.008-1.585 2.432a1.11 1.11 0 0 1-.976.499c-.873-.048-1.575-.142-2.015-.257h-.001c-2.559-.656-5.241-2.275-7.503-4.556C5.06 12.412 3.46 9.758 2.78 7.204c-.115-.44-.21-1.14-.257-2.011A1.083 1.083 0 0 1 3 4.217l2.41-1.604a.473.473 0 0 1 .255-.079c.05 0 .074.002.097.014l.01.004.01.003c.079.02.213.078.29.231v.002l1.965 3.778a.476.476 0 0 1-.117.563L5.675 8.875l-.067.052.04.075.284.518c.737 1.376 1.453 2.496 2.81 3.827 1.311 1.308 2.455 2.045 3.786 2.757l.52.283.075.04.052-.066 1.775-2.267a.447.447 0 0 1 .563-.114l3.81 1.96a.436.436 0 0 1 .226.272c-.023.14-.046.267-.117.356Z" stroke="#5E2CE6" stroke-opacity=".8" stroke-width=".2"/></svg>
